X:1
T:Thaxted
T:O God Beyond All Praising
T:Set to Thaxted from "Songs of Praise"
T:Gustav Holst (1926)
T:Michael Perry (1982)
C:Gustav Holst
%%score 1 ( 2 3 ) 4 { ( 5 6 ) | 7 }
L:1/8
Q:1/4=76
M:3/4
K:C
V:1 treble nm="Voice" snm="Vo."
V:2 bass nm="Tenor Trombone" snm="T. Trb."
V:3 bass 
V:4 bass nm="Bass Trombone" snm="B. Trb."
V:5 treble nm="Organ" snm="Org."
V:6 treble 
V:7 bass 
V:1
"^Moderato" [E,Ee][G,Gg] | [A,Aa]3 [Ccc'] [B,Bb]>[G,Gg] | [Ccc'][Ddd'] [Ccc']2 [B,Bb]2 | %3
w: O *|God be- yond all|prai- * sing, we|
 [A,Aa][B,Bb] [A,Aa]2 [G,Gg]2 | [E,Ee]4 [E,Ee][G,Gg] | [A,Aa]3 [Ccc'] [B,Bb]>[G,Gg] | %6
w: wor- ship you this|day, and *|sing the love a-|
 [Ccc'][Ddd'] [Ee]2 [Ee]2 | [Ee][Dd] [Cc]2 [Dd]2 | [Cc]4 [G,Gg][E,Ee] | %9
w: ma- * zing that|songs can- not re-|pay; for *|
 [D,Dd]3 [D,Dd] [C,Cc][E,Ee] | [D,Dd]2 [G,Gg]2 [G,Gg][E,Ee] | [D,Dd]3 [D,Dd] [E,Ee][G,Gg] | %12
w: we can on- ly|won- der at *|ev- ery gift you|
 [A,Aa]4 [A,Aa][B,Bb] | [Ccc']>[Ccc'] [B,Bb]2 [A,Aa]2 | [G,Gg]2 [Ccc']2 [E,Ee]2 | %15
w: send, at *|bless- ings with- out|num- ber and|
 [D,Dd][C,Cc] [D,Dd]2 [E,Ee]2 | [G,Gg]4 [E,Ee][G,Gg] | [A,Aa]3 [Ccc'] [B,Bb]>[G,Gg] | %18
w: mer- cies with- out|end. We *|lift our hearts be-|
 [Ccc'][Ddd'] [Ccc']2 [B,Bb]2 | [A,Aa][B,Bb] [A,Aa]2 [G,Gg]2 | [E,Ee]4 [E,Ee][G,Gg] | %21
w: fore * you and|wait up- on your|word, we *|
 [A,Aa]3 [Ccc'] [B,Bb]>[G,Gg] | [Cc][Dd] [Ee]2 [Ee]2 | [Ee][Dd] [Cc]2 [Dd]2 | [Cc]6 |] %25
w: hon- or and a-|dore * you, our|great and migh- ty|Lord.|
V:2
 z2 | z6 | z6 | z6 | z6 | z6 | z6 | z6 | z6 | z6 | z6 | z6 | z6 | z6 | z6 | z6 |!mp! z4 E,G, | %17
w: ||||||||||||||||We *|
 A,3 C B,>G, | CD C2 B,2 | A,B, A,2 [G,B,-]2 | [E,-B,]2 [E,A,]2 [E,G,]G, | A,3 C B,>G, | CD E2 E2 | %23
w: lift our hearts be-|fore * you and|wait up- on your|word, * we *|hon- or and a-|dore * you, our|
 ED C2 D2 | [CE]6 |] %25
w: great and migh- ty|Lord.|
V:3
 x2 | x6 | x6 | x6 | x6 | x6 | x6 | x6 | x6 | x6 | x6 | x6 | x6 | x6 | x6 | x6 | %16
 [B,D]2 [A,C]2 [G,B,]2 | [C,F,]2 z2 B,,2 | C,2 z2 C,2 | C,2 z2 D,2 | C,4 B,,2 | %21
 [C,F,]2 z2 [B,,F,]2 | [C,G,]2 z2 [G,C]2 | [F,A,]4 [F,B,]2 | G,6 |] %25
V:4
 z2 | z6 | z6 | z6 | z6 | z6 | z6 | z6 | z6 | z6 | z6 | z6 | z6 | z6 | z6 | z6 | z4!mp! G,,2 | %17
 F,,2 z2 D,2 | E,2 z2 E,2 | F,2 z2 G,2 | A,4 G,2 | F,2 z2 D,2 | E,2 z2 C,E, | F,4 G,2 | C,6 |] %25
V:5
 EG | A3 c B>G | cd c2 B2 | AB A2 G2 | E4 EG | A3 c B>G | cd e2 e2 | ed c2 d2 | c4 GE | D3 D CE | %10
w: O *|God be- yond all|prai- * sing, we|wor- ship you this|day, and *|sing the love a-|ma- * zing that|songs can- not re-|pay; for *|we can on- ly|
 D2 G2 GE | D3 D EG | A4 AB | c>c B2 A2 | G2 c2 E2 | DC D2 E2 | G4 EG | A3 c B>G | cd c2 B2 | %19
w: won- der at *|ev- ery gift you|send, at *|bless- ings with- out|num- ber and|mer- cies with- out|end. We *|lift our hearts be-|fore * you and|
 AB A2 [GB-]2 | [E-B]2 [EA]2 [EG]G | A3 c B>G | cd e2 e2 | ed c2 d2 | c6 |] %25
w: wait up- on your|word, * we *|hon- or and a-|dore * you, our|great and migh- ty||
V:6
 C2 | [CF]2 z2 [B,F]2 | [CG]2 z2 [CG]2 | [CF]2 z2 [B,D]2 | C4 B,2 | [CF]2 z2 [B,F]2 | %6
 [CG]2 z2 [Gc]2 | [FA]4 [FA]2 | [EG]4 C2 | [G,B,]4 x2 | G,4 C2 | B,4 C2 | [CF]4 [DF]2 | %13
 C2 [CE]2 [CF]2 | C2 [CF]2 C2 | A,2 x2 A,2 | D2 C2 B,2 | C2 z2 B,2 | C2 z2 C2 | C2 z2 D2 | C4 B,2 | %21
 [CF]2 z2 [B,F]2 | [CG]2 z2 [Gc]2 | [FA]4 [FB]2 | G6 |] %25
V:7
!mp! [C,,C,]2 | [F,,F,]2 z2 [D,,D,]2 | [E,,E,]2 z2 [E,,E,]2 | [F,,F,]2 z2 [G,,G,]2 | %4
 [A,,A,]4 [G,,G,]2 | [F,,F,]2 z2 [D,,D,]2 | [E,,E,]2 z2 [C,,C,][E,,E,] | [F,,F,]4 [F,,F,]2 | %8
 [C,,C,]4 [E,,,E,,]2 | [G,,,G,,]4 [A,,,A,,]2 | [B,,,B,,]4 [E,,,E,,]2 | [G,,,G,,]4 [C,,C,]2 | %12
 [F,,F,]2 [E,,E,]2 [D,,D,]2 | [A,,A,]2 [G,,G,]2 [F,,F,]2 | [E,,E,]2 [D,,D,]2 [C,,C,]2 | %15
 [F,,F,]2 [D,,D,]2 [C,,C,]2 | [B,,,B,,]2 [A,,,A,,]2 [G,,,G,,]2 | %17
 [F,,,A,,,C,,F,,]2 z2 [D,,G,,B,,D,]2 | [E,,G,,C,E,]2 z2 [E,,G,,B,,E,]2 | %19
 [F,,A,,C,F,]2 z2 [G,,B,,D,G,]2 | [A,,C,E,A,]4 [G,,B,,E,G,]2 | [F,,A,,C,F,]2 z2 [D,,F,,G,,D,]2 | %22
 [E,,G,,C,E,]2 z2 [C,,E,,G,,C,][E,,G,,C,E,] | [F,,A,,C,F,]4 [G,,B,,C,F,]2 | [C,,G,,C,E,]6 |] %25

